icons/op-arrow-out-24.svg

<svg width="24" height="24" viewBox="0 0 24 24" fill="none" xmlns="http://www.w3.org/2000/svg">
<path fill-rule="evenodd" clip-rule="evenodd" d="M18.6554 20C17.9128 20 17.3108 19.3796 17.3108 18.6142L17.3108 14.9324C17.3108 13.4018 16.1068 12.1609 14.6216 12.1609L8.59073 12.1609L12 15.6746C12.5251 16.2157 12.5251 17.0932 12 17.6343C11.4749 18.1755 10.6236 18.1755 10.0985 17.6343L4.39382 11.755C4.14166 11.4951 4 11.1427 4 10.7751C4 10.4076 4.14166 10.0551 4.39382 9.79525L9.62307 4.40588C10.1482 3.8647 10.9995 3.8647 11.5246 4.40588C12.0497 4.94706 12.0497 5.82448 11.5246 6.36565L8.59073 9.38937L14.6216 9.38937C17.592 9.38937 20 11.8711 20 14.9324L20 18.6142C20 19.3796 19.398 20 18.6554 20Z" fill="black"/>
</svg>

<svg xmlns="http://www.w3.org/2000/svg" width="24" height="24" viewBox="0 0 24 24"><path d="M18.655 20c-.742 0-1.344-.62-1.344-1.386v-3.682c0-1.53-1.204-2.771-2.689-2.771H8.591L12 15.675a1.415 1.415 0 0 1 0 1.959 1.315 1.315 0 0 1-1.901 0l-5.705-5.879a1.408 1.408 0 0 1-.394-.98c0-.367.142-.72.394-.98l5.229-5.389a1.317 1.317 0 0 1 1.902 0 1.416 1.416 0 0 1 0 1.96L8.591 9.389h6.031c2.97 0 5.378 2.482 5.378 5.543v3.682C20 19.38 19.398 20 18.655 20Z"/></svg>
